contributed-vectors/horatio.svg

<svg xmlns="http://www.w3.org/2000/svg" xml:space="preserve" style="fill-rule:evenodd;clip-rule:evenodd;stroke-linejoin:round;stroke-miterlimit:2" viewBox="0 0 192 192"><path d="M164.5 21.5c0-5.519-4.481-10-10-10h-133c-5.519 0-10 4.481-10 10v133c0 5.519 4.481 10 10 10h133c5.519 0 10-4.481 10-10v-133Z" style="fill:#9abeff" transform="translate(8 8)"/><path d="M75.706 121.27c-11.728-6.948-19.599-19.735-19.599-34.346 0-.929.032-1.851.094-2.767H70.26c-.097.91-.146 1.833-.146 2.767 0 14.288 11.599 25.887 25.886 25.887 14.287 0 25.886-11.599 25.886-25.887 0-.934-.049-1.857-.146-2.767h14.059c.062.916.094 1.838.094 2.767 0 14.611-7.871 27.398-19.599 34.346v29.676h-14.15v-24.204h-3.669a40.506 40.506 0 0 1-4.95 0h-3.669v24.204h-14.15V121.27Z" style="fill:#fff" transform="matrix(.73904 0 0 .73904 25.052 25.839)"/><path d="M112 54.924v32c0 8.831-7.169 16-16 16s-16-7.169-16-16V54.821c.056-8.783 7.204-15.897 16-15.897 8.831 0 16 7.17 16 16Z" style="fill:#fff" transform="matrix(.73904 0 0 .73904 25.052 25.839)"/></svg>

<?xml version="1.0" encoding="UTF-8" standalone="no"?>
<!DOCTYPE svg PUBLIC "-//W3C//DTD SVG 1.1//EN" "http://www.w3.org/Graphics/SVG/1.1/DTD/svg11.dtd">
<svg width="100%" height="100%" viewBox="0 0 192 192" version="1.1" xmlns="http://www.w3.org/2000/svg" xmlns:xlink="http://www.w3.org/1999/xlink" xml:space="preserve" xmlns:serif="http://www.serif.com/" style="fill-rule:evenodd;clip-rule:evenodd;stroke-linejoin:round;stroke-miterlimit:2;">
    <g id="Layer1">
        <g transform="matrix(1,0,0,1,8,8)">
            <path d="M164.5,21.5C164.5,15.981 160.019,11.5 154.5,11.5L21.5,11.5C15.981,11.5 11.5,15.981 11.5,21.5L11.5,154.5C11.5,160.019 15.981,164.5 21.5,164.5L154.5,164.5C160.019,164.5 164.5,160.019 164.5,154.5L164.5,21.5Z" style="fill:rgb(154,190,255);"/>
        </g>
        <g transform="matrix(0.739043,0,0,0.739043,25.0518,25.8389)">
            <g>
                <path d="M75.706,121.27C63.978,114.322 56.107,101.535 56.107,86.924C56.107,85.995 56.139,85.073 56.201,84.157L70.26,84.157C70.163,85.067 70.114,85.99 70.114,86.924C70.114,101.212 81.713,112.811 96,112.811C110.287,112.811 121.886,101.212 121.886,86.924C121.886,85.99 121.837,85.067 121.74,84.157L135.799,84.157C135.861,85.073 135.893,85.995 135.893,86.924C135.893,101.535 128.022,114.322 116.294,121.27L116.294,150.946L102.144,150.946L102.144,126.742L98.475,126.742C97.659,126.792 96.832,126.818 96,126.818C95.168,126.818 94.341,126.792 93.525,126.742L89.856,126.742L89.856,150.946L75.706,150.946L75.706,121.27Z" style="fill:white;"/>
            </g>
            <path d="M112,54.924L112,86.924C112,95.755 104.831,102.924 96,102.924C87.169,102.924 80,95.755 80,86.924L80,54.924L80,54.821C80.056,46.038 87.204,38.924 96,38.924C104.831,38.924 112,46.094 112,54.924Z" style="fill:white;"/>
        </g>
    </g>
</svg>
